!!!COM: Gabriel Faure/
!!!CNT: Francais
!!!TXO: Francais
!!!OTL: La Ranc5on
!!!OPS: Op. 8
!!!ONM: No. 2
!!!LYR: Charles Baudelaire
!!!ENC: Jacob Pegg
!!!YOR: Album of Twenty Songs (Vingt Me/lodies,) Volume I
!!!YOR: Edward B. Marks Music Corporation, RCA Building, Radio
!!!YOR: City, New York 20, N.Y.
!!!ODT: 1871/
!!NB: Vocal melody and text only encoded.
!!NB: First instance of melodic material only encoded.
**kern	**silbe
*clef G2	*
*k[f#]	*
*M3/4	*
*MM[andante]	*
!!created: 8/22/03 10:59
!!proofed and posted: 8/22/03 12:39
!!edit time: 30 min.
=1	=1
2r	.
4r	.
=2	=2
4r	.
2r	.
=3	=3
{2.b	{L'hom-
=4	=4
4e	-me a,
4e	pour
4f#	pay-
=5	=5
2g	-er
8a	sa
8g	ran-
=6	=6
2f#}	-c5on,}
{4g	{Deux
=7	=7
2a	champs
4b	au
=8	=8
4.dd	tuf
8cc	pro-
8b	-fond
8g	et
=9	=9
(4.a	ri-
8b	|
4cc)	|
=10	=10
2b}	-che,}
{4e	{Qu'il
=11	=11
2f#	faut
8g	qu'il
8g	re-
=12	=12
2a	-mue
8b	et
8e	de/-
=13	=13
(2f#	-fri-
4g)	|
=14	=14
2a}	-che}
{4b	{A-
=15	=15
4.dd	-vec
8cc	le
[4b	fer
=16	=16
4.b]	|
8g	de
8f#	la
8g	rai-
=17	=17
2.e}	-son.}
=18	=18
4r	.
2r	.
=19	=19
{4b	{Pour
8b	ob-
8b	-te-
[4b	-nir
=20	=20
8b]	|
8a#	la
8a#	moin-
8b	-dre
8a#	ro-
8f#}	-se,}
=21	=21
{4g	{Pour
8an	ex-
8b	-tor-
[4b	-quer
=22	=22
8b]	|
8a#	quel-
8a#	-ques
8b	e/-
4a#}	-pis,}
=23	=23
4r	.
{4b	{Des
[4dd	pleurs
=24	=24
8dd]	|
8cc	sa-
8b	-le/s
8a	de
8g	son
8f#	front
=25	=25
2.b}	gris,}
=26	=26
4r	.
{4dd	{Sans
[4ff#	ces-
=27	=27
8ff#]	|
8ee	-se il
8dd	faut
8cc#	qu'il
8b	les
8a#	ar-
=28	=28
4a#	-ro-
4b}	-se!}
4r	.
=29	=29
*k[f#c#g#d#]	*
4r	.
2r	.
=30	=30
{4.b	{L'un
8g#	est
[4ee	l'Art
=31	=31
2ee]	|
4b	et
=32	=32
2b	l'au-
8g#	-tre,
8f#	l'A-
=33	=33
2.e}	-mour;}
=34	=34
4r	.
4r	.
{4e	{Pour
=35	=35
2b	ren-
8a	-dre
8g#	le
=36	=36
2a	ju-
8b	-ge
8cc#	pro-
=37	=37
(2cc#	-pi-
4e#)	|
=38	=38
2.f#}	-ce,}
=39	=39
{4cc#	{Lors-
4cc#	-que
8b	de
8a#	la
=40	=40
2b	stric-
8cc#	-te
8dd#	jus-
=41	=41
(2dd#	-ti-
4f##)	|
=42	=42
2.g#}	-ce}
=43	=43
4r	.
4r	.
{8f#	{Pa-
8f#	-rai-
=44	=44
4b	-tra
4dd#	le
4ff#	ter-
=45	=45
2dd#	-ri-
4cc#	-ble
=46	=46
2.b}	jour,}
=47	=47
4r	.
2r	.
=48	=48
{2dd#	{Il
4dd#	fau-
=49	=49
4ee	-dra
4dd#	lui
4cc#	mon-
=50	=50
2b#	-trer
4b#	des
=51	=51
2dd#	gran-
4cc#}	-ges}
=52	=52
{2ee	{Plei-
4b#	-nes
=53	=53
4cc#	de
4ddn	mois-
4cc#	-sons
=54	=54
2cc#	et
4g#	de
=55	=55
2.a}	fleurs,}
=56	=56
{2b	{Dont
4b	les
=57	=57
2cc#	for-
4ee	-mes
=58	=58
4dd#	et
4cc#	les
4b	cou-
=59	=59
[2.b	-leurs
=60	=60
4b]}	|}
4r	.
4r	.
=61	=61
4r	.
2r	.
=62	=62
2r	.
4r	.
=63	=63
{2.cc#	{Ga-
=64	=64
4cc#	-gnent
4cc#	le
4ee	suf-
=65	=65
4dd#	-fra-
4cc#	-ge
4b	des
=66	=66
[2.b	An-
=67	=67
2.b]	|
=68	=68
4b}	-ges.}
4r	.
4r	.
*-	*-
